Papirus/22x22/animations/nm-vpn-connecting03.svg

<?xml version="1.0" encoding="UTF-8" standalone="no"?>
<svg xmlns="http://www.w3.org/2000/svg" version="1.1" width="22" height="22">
 <defs>
  <linearGradient x1="7" y1="12" gradientTransform="matrix(0.78152,-0.62388,-0.62388,-0.78152,9.1089,27.865)" x2="19" gradientUnits="userSpaceOnUse" y2="5" id="linearGradient3605">
   <stop offset="0" stop-opacity=".5" stop-color="#d3dae3"/>
   <stop offset="1" stop-opacity="0" stop-color="#d3dae3"/>
  </linearGradient>
  <linearGradient x1="7" y1="12" gradientTransform="matrix(-0.78152,0.62388,0.62388,0.78152,12.892,-5.8648)" x2="17" gradientUnits="userSpaceOnUse" y2="12" id="linearGradient3611">
   <stop offset="0" stop-color="#d3dae3"/>
   <stop offset="1" stop-color="#d3dae3" stop-opacity=".5"/>
  </linearGradient>
 </defs>
 <path d="M 11.111328 4 C 9.5430281 3.9745 7.9548125 4.4739969 6.6328125 5.5292969 C 3.6114125 7.9411969 3.1173969 12.346188 5.5292969 15.367188 L 7.0917969 14.119141 C 5.3689969 11.961141 5.7230594 8.8142969 7.8808594 7.0917969 C 10.038959 5.3689969 13.185203 5.7227594 14.908203 7.8808594 C 15.719203 8.8968594 17.281703 7.6488125 16.470703 6.6328125 C 15.113703 4.9333125 13.128328 4.0328 11.111328 4 z" style="fill:url(#linearGradient3611)"/>
 <path d="M 16.470703 6.6328125 L 14.908203 7.8808594 C 15.645368 8.8037896 15.975012 9.9062498 15.972656 11.001953 C 15.981974 11.001865 15.990661 11 16 11 C 16.751018 11 17.425913 11.294429 17.949219 11.759766 C 18.144115 9.985726 17.671992 8.1381941 16.470703 6.6328125 z M 7.09375 14.119141 L 5.5292969 15.367188 C 7.1356544 17.379923 9.6232708 18.247397 12 17.904297 L 12 15.875 C 10.219067 16.240149 8.3060383 15.638157 7.09375 14.119141 z" style="fill:url(#linearGradient3605)"/>
 <path d="m16 12c-1.108 0-2 .91085-2 2.0312v.96875h-1v4h6v-4h-1v-.96875c0-1.12-.892-2.031-2-2.031zm0 1c.554 0 1 .4424 1 1v1h-2v-1c0-.5576.446-1 1-1z" fill="#d3dae3"/>
</svg>

<?xml version="1.0" encoding="UTF-8" standalone="no"?>
<svg width="22" xmlns="http://www.w3.org/2000/svg" version="1.1" height="22">
 <defs>
  <linearGradient id="linearGradient3605" x1="7" gradientUnits="userSpaceOnUse" x2="19" gradientTransform="matrix(.78152 -.62388 -.62388 -.78152 9.1089 27.865)" y1="12" y2="5">
   <stop stop-opacity=".5" stop-color="#d3dae3" offset="0"/>
   <stop stop-opacity="0" stop-color="#d3dae3" offset="1"/>
  </linearGradient>
  <linearGradient id="linearGradient3611" x1="7" gradientUnits="userSpaceOnUse" x2="17" gradientTransform="matrix(-.78152 .62388 .62388 .78152 12.892 -5.8648)" y1="12" y2="12">
   <stop stop-color="#d3dae3" offset="0"/>
   <stop stop-color="#d3dae3" stop-opacity=".5" offset="1"/>
  </linearGradient>
 </defs>
 <path style="fill:url(#linearGradient3611)" d="m11.111 4c-1.568-0.0255-3.1562 0.474-4.4782 1.5293-3.0214 2.4119-3.5154 6.8167-1.1035 9.8377l1.5625-1.248c-1.7228-2.158-1.3687-5.3047 0.7891-7.0272 2.1581-1.7228 5.3041-1.369 7.0271 0.7891 0.811 1.016 2.374-0.2321 1.563-1.2481-1.357-1.6995-3.343-2.6-5.36-2.6328z"/>
 <path style="fill:url(#linearGradient3605)" d="m16.471 6.6328l-1.563 1.2481c0.737 0.9229 1.067 2.0253 1.065 3.1211 0.009 0 0.018-0.002 0.027-0.002 0.751 0 1.426 0.294 1.949 0.76 0.195-1.7743-0.277-3.6218-1.478-5.1272zm-9.3772 7.4862l-1.5645 1.248c1.6064 2.013 4.094 2.88 6.4707 2.537v-2.029c-1.781 0.365-3.694-0.237-4.9062-1.756z"/>
 <path d="m16 12c-1.108 0-2 0.91085-2 2.0312v0.96875h-1v4h6v-4h-1v-0.96875c0-1.12-0.892-2.031-2-2.031zm0 1c0.554 0 1 0.4424 1 1v1h-2v-1c0-0.5576 0.446-1 1-1z" fill="#d3dae3"/>
</svg>
